**kern	**kern
*staff2	*staff1
*clefF4	*clefG2
*k[]	*k[]
*M2/4	*M2/4
*a:	*a:
=-	=-
8r	(8ee 8eee
=113	=113
(8CL	8dd#L 8ddd#
8EJ	8eeJ 8eee
8AAL	8ffnL 8fffn
8EJ)	8eeJ) 8eee
=114	=114
(8BBL	8dd'L 8ddd'
8EJ	8b'J 8bb'
8DL	8g#'L 8gg#'
8EJ)	(8eeJ 8eee
=115	=115
(8CL	8dd#L 8ddd#
8EJ	8eeJ 8eee
8AAL	8ffL 8fff
8EJ)	8eeJ) 8eee
=116	=116
(8BBL	8dd'L 8ddd'
8EJ	8b'J 8bb'
8DL	8g#'L 8gg#'
8EJ)	8eeJ 8eee
=117	=117
(8CL	(8g#L 8gg#
8AJ	8aJ 8aa
8C#L 8E	8b-L 8bb-
8AJ)	8aJ 8aa
=118	=118
(8DL 8F	8g#L 8gg#
8AJ	8aJ 8aa
8D#L 8F#	8bnL 8bbn
8cJ)	8aJ) 8aa
=119	=119
(8EL 8A	(8d#L 8dd#
8cJ	8eJ 8ee
8EL 8G#	8fL 8ff
8BJ)	8eJ) 8ee
=120	=120
8AL	4a
8EJ	.
8AA	8r
=	=
*-	*-
